public/icons/tick__icon.svg

<svg width="24" height="24" viewBox="0 0 24 24" fill="none" xmlns="http://www.w3.org/2000/svg">
    <g clip-path="url(#clip0_115_342)">
        <mask id="mask0_115_342" style="mask-type:luminance" maskUnits="userSpaceOnUse" x="0" y="0"
            width="24" height="24">
            <path d="M24 0H0V24H24V0Z" fill="white" />
        </mask>
        <g mask="url(#mask0_115_342)">
            <path d="M16.6418 8.85514L10.3524 15.1445L7.3584 12.1505" stroke="#A5958B"
                strokeWidth="3" strokeMiterlimit="10" strokeLinecap="round"
                strokeLinejoin="round" />
            <mask id="mask1_115_342" style="mask-type:luminance" maskUnits="userSpaceOnUse" x="0"
                y="0" width="24" height="24">
                <path d="M22.5 22.5V1.5H1.5V22.5H22.5Z" fill="white" stroke="white" strokeWidth="3" />
            </mask>
            <g mask="url(#mask1_115_342)">
                <path
                    d="M23.0624 12C23.0624 18.1097 18.1096 23.0625 12 23.0625C5.89034 23.0625 0.9375 18.1097 0.9375 12C0.9375 5.89041 5.89034 0.937563 12 0.937563C18.1096 0.937563 23.0624 5.89041 23.0624 12Z"
                    stroke="#A5958B" strokeWidth="3" strokeMiterlimit="10" strokeLinecap="round"
                    strokeLinejoin="round" />
            </g>
        </g>
    </g>
    <defs>
        <clipPath id="clip0_115_342">
            <rect width="24" height="24" fill="white" />
        </clipPath>
    </defs>
</svg>

<svg xmlns="http://www.w3.org/2000/svg" width="24" height="24" fill="none"><g clip-path="url(#a)"><mask id="b" width="24" height="24" x="0" y="0" maskUnits="userSpaceOnUse" style="mask-type:luminance"><path fill="#fff" d="M24 0H0v24h24V0Z"/></mask><g mask="url(#b)"><path stroke="#A5958B" d="m16.642 8.855-6.29 6.29-2.994-2.995"/><mask id="c" width="24" height="24" x="0" y="0" maskUnits="userSpaceOnUse" style="mask-type:luminance"><path fill="#fff" stroke="#fff" d="M22.5 22.5v-21h-21v21h21Z"/></mask><g mask="url(#c)"><path stroke="#A5958B" d="M23.062 12c0 6.11-4.952 11.063-11.062 11.063C5.89 23.063.937 18.11.937 12S5.89.938 12 .938 23.062 5.89 23.062 12Z"/></g></g></g><defs><clipPath id="a"><path fill="#fff" d="M0 0h24v24H0z"/></clipPath></defs></svg>
